!!!OTL: 185. Sher
!!!Genre:	Sher
!!!Mode:	Altered Dorian
!!!Listening/dance:	dance
!!!:	*G:
!!!One_Mode:	no
**kern
*thru
*I"P1
*clefG2
*k[b-]
*G:
!LO:TX:a:i:t=G-major
2b
=18
2cc
=19
(8bL
8aJ)
(16ccLL
16bJ
8aJ)
=20
(4.a
8g)
=21
2b
=22
2cc
=23
8bL
8aJ
16ccLL
16bJ
8aJ
=24
8ddL
8cc#XJ
8dd
8r
=25
2a
=26
2b
=27
8aL
8gJ
16bLL
16aJ
8gJ
=28
4.g
8r
=29
4f#
4g
!!!End-Modulation
*-
